dist/img/svg/ic_comment.svg

<svg width="25" height="25" viewBox="0 0 25 25" fill="none" xmlns="http://www.w3.org/2000/svg">
<path d="M20.1649 4H4.83525C3.82325 4 3 4.82325 3 5.83525V14.7738C3 15.786 3.82325 16.6092 4.83525 16.6092C5.06125 16.6092 5.27289 16.6979 5.43125 16.8592C5.58945 17.0202 5.67441 17.2331 5.67037 17.4588C5.60675 21.0388 5.67372 21.0674 6.04465 21.2249C6.10604 21.2511 6.17203 21.2635 6.23829 21.2635C6.37348 21.2635 6.50936 21.2116 6.60619 21.1162C6.73523 20.9894 8.73258 18.9923 10.8715 16.8534C11.0289 16.696 11.2386 16.6092 11.4615 16.6092H20.1644C21.1764 16.6092 21.9997 15.786 21.9997 14.7738L21.9998 5.83525C21.9998 4.82325 21.1765 4 20.1645 4L20.1649 4ZM21.0001 14.7736C21.0001 15.2341 20.6254 15.609 20.1649 15.609H11.462C10.9719 15.609 10.5113 15.7995 10.165 16.1459C9.23646 17.0745 7.61036 18.7005 6.65568 19.6543C6.65038 19.1903 6.65233 18.5005 6.67047 17.4761C6.67926 16.98 6.49259 16.5121 6.14479 16.1579C5.79699 15.8039 5.33186 15.609 4.8355 15.609C4.37497 15.609 4.00025 15.2342 4.00025 14.7736V5.835C4.00025 5.37446 4.37497 4.99961 4.8355 4.99961H20.1651C20.6257 4.99961 21.0004 5.37446 21.0004 5.835L21.0001 14.7736Z" fill="#202125" stroke="#202125" stroke-width="0.3"/>
</svg>

<svg width="25" height="25" viewBox="0 0 25 25" fill="none" xmlns="http://www.w3.org/2000/svg"><path d="M20.165 4H4.835A1.837 1.837 0 003 5.835v8.939c0 1.012.823 1.835 1.835 1.835a.83.83 0 01.596.25.828.828 0 01.24.6c-.064 3.58.003 3.608.374 3.766a.528.528 0 00.562-.109c.128-.127 2.126-2.124 4.264-4.263a.83.83 0 01.59-.244h8.703A1.837 1.837 0 0022 14.774V5.835A1.837 1.837 0 0020.165 4h0zM21 14.774c0 .46-.375.835-.835.835h-8.703c-.49 0-.95.19-1.297.537-.929.928-2.555 2.555-3.51 3.508a77.555 77.555 0 01.015-2.178 1.821 1.821 0 00-.525-1.318 1.822 1.822 0 00-1.31-.549.836.836 0 01-.835-.835V5.835c0-.46.375-.835.835-.835h15.33c.46 0 .835.374.835.835v8.939z" fill="#202125" stroke="#202125" stroke-width=".3"/></svg>
